img/logo-htmlacademy.svg

<svg width="93" height="27" viewBox="0 0 93 27" fill="none" xmlns="http://www.w3.org/2000/svg">
<g clip-path="url(#clip0)">
<path d="M0 10.4163V12.4995H1.98768V10.4163H0Z" fill="#2D3440"/>
<path d="M9.41854 3.66311C8.15678 3.66311 7.13702 4.236 6.4975 5.06932H6.42836V0H4.78638V12.4997H6.42836V8.21161C6.42836 6.4929 7.49999 5.26029 9.07286 5.26029C10.5593 5.26029 11.4235 6.37138 11.4235 7.86439V12.4997H13.0655V7.56926C13.0655 5.19084 11.5963 3.66311 9.41854 3.66311Z" fill="#2D3440"/>
<path d="M21.5252 3.90628H17.6363V0.868164H15.9943V3.90628H14.4387V5.50347H15.9943V10.3471C15.9943 11.7359 16.7721 12.4998 18.1721 12.4998H21.5252V10.8853H18.5005C17.9474 10.8853 17.6363 10.5728 17.6363 10.0346V5.50347H21.5252V3.90628Z" fill="#2D3440"/>
<path d="M33.2548 3.68042C31.9411 3.68042 30.9388 4.32276 30.3856 5.34705H30.3338C29.8325 4.34014 28.8992 3.68042 27.6202 3.68042C26.4795 3.68042 25.6152 4.28804 25.0967 5.13873H25.0275V3.90612H23.4547V12.4996H25.0967V8.09004C25.0967 6.47549 25.9435 5.29497 27.2227 5.26025C28.4325 5.22553 29.1412 6.09356 29.1412 7.3956V12.4996H30.7832V7.95115C30.7832 6.02412 31.9239 5.26025 32.9091 5.26025C34.1017 5.26025 34.8105 6.09356 34.8105 7.3956V12.4996H36.4523V7.222C36.4523 5.13873 35.277 3.68042 33.2548 3.68042Z" fill="#2D3440"/>
<path d="M38.6776 10.2775C38.6776 11.6837 39.4727 12.4997 40.9418 12.4997H42.5665V10.9025H41.1837C40.6306 10.9025 40.3194 10.59 40.3194 10.0518V0H38.6776V10.2775Z" fill="#2D3440"/>
<path d="M23.3752 15.9364H23.306C22.6653 15.0734 21.6266 14.4694 20.2413 14.4521C17.6959 14.4176 15.8778 16.2988 15.8778 18.9566C15.8778 21.6318 17.7305 23.513 20.2239 23.4785C21.6437 23.4611 22.6653 22.8226 23.306 21.9078H23.3752V23.2367H25.003V14.6937H23.3752V15.9364ZM20.4663 21.8907C18.6656 21.8907 17.5228 20.5789 17.5228 18.9566C17.5228 17.3343 18.6656 16.0227 20.4663 16.0227C22.2152 16.0227 23.3581 17.3343 23.3581 18.9566C23.3581 20.5618 22.2152 21.8907 20.4663 21.8907Z" fill="#2D3440"/>
<path d="M35.752 17.8003C35.3537 15.8673 33.6395 14.4521 31.3886 14.4521C28.6701 14.4521 26.8521 16.4369 26.8521 18.9567C26.8521 21.4764 28.6701 23.4785 31.3886 23.4785C33.6395 23.4785 35.3537 22.0287 35.752 20.0785H34.0378C33.6915 21.1658 32.6699 21.9078 31.4059 21.9078C29.6397 21.9078 28.4968 20.5789 28.4968 18.9567C28.4968 17.3343 29.6397 16.0227 31.4059 16.0227C32.7218 16.0227 33.6915 16.7993 34.0378 17.8003H35.752Z" fill="#2D3440"/>
<path d="M44.5459 15.9364H44.4766C43.836 15.0734 42.797 14.4694 41.4117 14.4521C38.8664 14.4176 37.0483 16.2988 37.0483 18.9566C37.0483 21.6318 38.9011 23.513 41.3944 23.4785C42.8143 23.4611 43.836 22.8226 44.4766 21.9078H44.5459V23.2367H46.1735V14.6937H44.5459V15.9364ZM41.6369 21.8907C39.836 21.8907 38.6933 20.5789 38.6933 18.9566C38.6933 17.3343 39.836 16.0227 41.6369 16.0227C43.3858 16.0227 44.5285 17.3343 44.5285 18.9566C44.5285 20.5618 43.3858 21.8907 41.6369 21.8907Z" fill="#2D3440"/>
<path d="M55.5201 16.0227H55.4509C54.8102 15.1079 53.7365 14.4694 52.3686 14.4521C49.8754 14.4176 48.0226 16.2988 48.0226 18.9739C48.0226 21.6317 49.8407 23.513 52.386 23.4785C53.7365 23.4611 54.8102 22.8571 55.4336 21.9942H55.5201V23.2367H57.1477V10.8105H55.5201V16.0227ZM52.6112 21.9078C50.8103 21.9078 49.6675 20.5963 49.6675 18.9739C49.6675 17.3516 50.8103 16.0399 52.6112 16.0399C54.3601 16.0399 55.5028 17.3688 55.5028 18.9739C55.5028 20.5963 54.3601 21.9078 52.6112 21.9078Z" fill="#2D3440"/>
<path d="M63.3449 14.4521C60.713 14.4521 58.9121 16.4714 58.9121 18.9739C58.9121 21.4074 60.6091 23.4785 63.3794 23.4785C65.388 23.4785 66.9984 22.3912 67.5699 20.5789H65.8555C65.4748 21.3902 64.557 21.9078 63.4488 21.9078C61.8905 21.9078 60.7822 20.8724 60.661 19.5435H67.743C67.968 16.6958 66.1846 14.4521 63.3449 14.4521ZM63.3102 16.0227C64.6781 16.0227 65.6998 16.8684 65.9595 18.0937H60.6957C60.938 16.8856 61.9597 16.0227 63.3102 16.0227Z" fill="#2D3440"/>
<path d="M79.4126 14.4695C78.0968 14.4695 77.0925 15.108 76.5384 16.1263H76.4863C75.9843 15.1253 75.0492 14.4695 73.7679 14.4695C72.6252 14.4695 71.7593 15.0735 71.2399 15.9192H71.1707V14.6938H69.595V23.2368H71.2399V18.8532C71.2399 17.2481 72.0884 16.0745 73.3698 16.04C74.5817 16.0055 75.2918 16.8684 75.2918 18.1628V23.2368H76.9367V18.7151C76.9367 16.7994 78.0794 16.04 79.0664 16.04C80.2611 16.04 80.971 16.8684 80.971 18.1628V23.2368H82.616V17.9902C82.616 15.9192 81.4385 14.4695 79.4126 14.4695Z" fill="#2D3440"/>
<path d="M88.5048 21.8732L85.5611 14.6936H83.743L87.6563 24.0479L87.6391 24.0824C87.362 24.7899 87.0503 25.0488 86.2884 25.0488H84.2626V26.6883H86.2884C87.7775 26.6883 88.574 26.0153 89.1281 24.5655L92.9029 14.6936H91.2232L88.5048 21.8732Z" fill="#2D3440"/>
</g>
<defs>
<clipPath id="clip0">
<rect width="93" height="26.7107" fill="white"/>
</clipPath>
</defs>
</svg>

<svg xmlns="http://www.w3.org/2000/svg" fill="none" viewBox="0 0 93 27">
  <g fill="#2D3440" clip-path="url(#a)">
    <path d="M0 10.416V12.5h1.988v-2.083H0Zm9.419-6.753c-1.262 0-2.282.573-2.922 1.406h-.069V0H4.786v12.5h1.642V8.212c0-1.72 1.072-2.952 2.645-2.952 1.486 0 2.35 1.111 2.35 2.604V12.5h1.643V7.57c0-2.38-1.47-3.907-3.647-3.907Zm12.106.243h-3.889V.868h-1.642v3.038H14.44v1.597h1.555v4.844c0 1.389.778 2.153 2.178 2.153h3.353v-1.615h-3.024c-.554 0-.865-.312-.865-.85V5.503h3.89V3.906Zm11.73-.226c-1.314 0-2.316.643-2.87 1.667h-.051C29.832 4.34 28.899 3.68 27.62 3.68c-1.14 0-2.005.608-2.523 1.459h-.07V3.906h-1.572V12.5h1.642V8.09c0-1.615.846-2.795 2.126-2.83 1.21-.034 1.918.834 1.918 2.136V12.5h1.642V7.95c0-1.927 1.14-2.69 2.126-2.69 1.193 0 1.901.833 1.901 2.135V12.5h1.642V7.222c0-2.083-1.175-3.542-3.197-3.542Zm5.423 6.597c0 1.407.795 2.223 2.264 2.223h1.624v-1.598h-1.382c-.553 0-.865-.312-.865-.85V0h-1.641v10.277Zm-15.303 5.659h-.069c-.64-.863-1.68-1.467-3.065-1.484-2.545-.034-4.363 1.847-4.363 4.505 0 2.675 1.852 4.556 4.346 4.521 1.42-.017 2.441-.655 3.082-1.57h.07v1.329h1.627v-8.543h-1.628v1.242Zm-2.909 5.955c-1.8 0-2.943-1.312-2.943-2.934 0-1.623 1.143-2.934 2.943-2.934 1.75 0 2.892 1.311 2.892 2.934 0 1.605-1.143 2.934-2.892 2.934ZM35.752 17.8c-.398-1.933-2.113-3.348-4.363-3.348-2.719 0-4.537 1.985-4.537 4.505 0 2.52 1.818 4.521 4.537 4.521 2.25 0 3.965-1.45 4.363-3.4h-1.714c-.346 1.088-1.368 1.83-2.632 1.83-1.766 0-2.91-1.33-2.91-2.951 0-1.623 1.144-2.934 2.91-2.934 1.316 0 2.285.776 2.632 1.777h1.714Zm8.794-1.864h-.07c-.64-.863-1.679-1.467-3.064-1.484-2.546-.034-4.364 1.847-4.364 4.505 0 2.675 1.853 4.556 4.346 4.521 1.42-.017 2.442-.655 3.083-1.57h.069v1.329h1.627v-8.543h-1.627v1.242Zm-2.91 5.955c-1.8 0-2.943-1.312-2.943-2.934 0-1.623 1.143-2.934 2.944-2.934 1.749 0 2.892 1.311 2.892 2.934 0 1.605-1.143 2.934-2.892 2.934Zm13.884-5.868h-.07c-.64-.915-1.714-1.554-3.081-1.57-2.494-.035-4.346 1.846-4.346 4.52 0 2.659 1.818 4.54 4.363 4.506 1.35-.018 2.424-.622 3.048-1.485h.086v1.243h1.628V10.81H55.52v5.212Zm-2.909 5.885c-1.8 0-2.944-1.312-2.944-2.934s1.143-2.934 2.944-2.934c1.75 0 2.892 1.329 2.892 2.934 0 1.622-1.143 2.934-2.892 2.934Zm10.734-7.456c-2.632 0-4.433 2.02-4.433 4.522 0 2.433 1.697 4.505 4.467 4.505 2.009 0 3.62-1.088 4.19-2.9h-1.713c-.381.811-1.299 1.329-2.407 1.329-1.558 0-2.667-1.036-2.788-2.364h7.082c.225-2.848-1.558-5.092-4.398-5.092Zm-.035 1.57c1.368 0 2.39.846 2.65 2.072h-5.264c.242-1.208 1.264-2.071 2.614-2.071Zm16.103-1.552c-1.316 0-2.32.638-2.875 1.656h-.052c-.502-1-1.437-1.657-2.718-1.657-1.143 0-2.009.604-2.528 1.45h-.07v-1.225h-1.575v8.543h1.645v-4.384c0-1.605.848-2.779 2.13-2.813 1.212-.034 1.922.828 1.922 2.123v5.074h1.645v-4.522c0-1.916 1.142-2.675 2.13-2.675 1.194 0 1.904.828 1.904 2.123v5.074h1.645V17.99c0-2.07-1.177-3.52-3.203-3.52Zm9.092 7.403-2.944-7.18h-1.818l3.913 9.355-.017.034c-.277.708-.589.967-1.35.967h-2.026v1.64h2.025c1.49 0 2.286-.674 2.84-2.123l3.775-9.872h-1.68l-2.718 7.18Z"/>
  </g>
  <defs>
    <clipPath id="a">
      <path fill="#fff" d="M0 0h93v26.711H0z"/>
    </clipPath>
  </defs>
</svg>
